packages/core/src/svgs/tokens/branded/BUY.svg

<svg width="24" height="24" viewBox="0 0 24 24" fill="none" xmlns="http://www.w3.org/2000/svg">
<path d="M21.9237 11.9243C21.9637 14.5563 20.9563 17.0965 19.1233 18.9858C17.2904 20.8751 14.7819 21.959 12.1498 21.9989C9.51776 22.0387 6.97763 21.0315 5.08826 19.1985C3.19891 17.3656 2.11507 14.8571 2.0752 12.2249V3.80442C2.0752 3.32585 2.2653 2.8669 2.60369 2.5285C2.94208 2.19011 3.40105 2 3.8796 2H11.9994C13.3027 2 14.5933 2.2567 15.7973 2.75544C17.0014 3.25419 18.0954 3.9852 19.017 4.90676C19.9385 5.82831 20.6696 6.92235 21.1683 8.12641C21.667 9.3305 21.9237 10.621 21.9237 11.9243ZM5.68402 4.77279C5.68402 4.29161 5.26299 3.80442 4.78181 3.80442C4.30665 3.80442 3.8796 4.28559 3.8796 4.77279V12.7904C3.8796 14.0535 4.74573 15.8458 6.0028 17.3014C6.70402 18.1509 7.58265 18.8365 8.57703 19.3103C9.57137 19.7841 10.6575 20.0346 11.7589 20.0442C14.7963 20.0442 16.9134 18.8832 18.2548 17.2773C19.578 15.6895 20.1132 13.7287 20.1132 12.1588C20.1132 10.589 19.5659 8.56198 18.327 6.90801C17.6419 5.9555 16.738 5.18175 15.691 4.65205C14.6442 4.12235 13.4854 3.85226 12.3123 3.86456C11.831 3.86456 11.4461 4.32168 11.4461 4.80887C11.4461 5.29005 11.831 5.68101 12.3123 5.68101C14.4896 5.68101 15.9813 6.67343 16.9555 7.96659C17.8348 9.1903 18.31 10.658 18.3149 12.1649C18.3149 13.3738 17.972 14.9195 16.9495 16.1465C15.9511 17.3375 14.3211 18.2398 11.7708 18.2398C10.9168 18.2423 10.0727 18.0561 9.29911 17.6941C8.52544 17.3323 7.84141 16.8038 7.29596 16.1465C6.23136 14.9076 5.68402 13.5122 5.68402 12.7904V4.77279ZM9.29279 4.77279C9.29279 4.29161 8.87182 3.80442 8.39664 3.80442C7.92148 3.80442 7.48843 4.28559 7.48843 4.77279V12.1649C7.48843 13.819 9.08831 16.2247 12.0416 16.2247C14.5016 16.2247 16.5105 14.3782 16.5105 11.8942C16.4774 10.7916 16.0255 9.74325 15.2467 8.9621C14.4678 8.18108 13.4207 7.72614 12.3182 7.68992C11.8371 7.68992 11.4521 8.08689 11.4521 8.56802C11.4521 9.04926 11.8371 9.44615 12.3182 9.44615C13.5814 9.44615 14.7061 10.6191 14.7061 11.8942C14.7061 13.44 13.5512 14.4745 12.0416 14.4745C10.2492 14.4745 9.29279 13.0791 9.29279 12.1649V4.77279Z" fill="url(#paint0_linear_364_7612)"/>
<defs>
<linearGradient id="paint0_linear_364_7612" x1="11.9994" y1="2" x2="11.9994" y2="21.8486" gradientUnits="userSpaceOnUse">
<stop stop-color="#FADB67"/>
<stop offset="0.98" stop-color="#E15015"/>
</linearGradient>
</defs>
</svg>

<svg xmlns="http://www.w3.org/2000/svg" width="24" height="24" fill="none" viewBox="0 0 24 24">
    <path fill="url(#BUY__a)" d="M21.924 11.924a9.925 9.925 0 1 1-19.849.3v-8.42A1.804 1.804 0 0 1 3.88 2H12a9.924 9.924 0 0 1 9.924 9.924M5.684 4.773c0-.481-.421-.969-.902-.969-.475 0-.902.482-.902.969v8.017c0 1.264.866 3.056 2.123 4.511a7.55 7.55 0 0 0 5.756 2.743c3.037 0 5.154-1.16 6.496-2.767 1.323-1.588 1.858-3.548 1.858-5.118s-.547-3.597-1.786-5.251a7.31 7.31 0 0 0-6.015-3.043c-.481 0-.866.457-.866.944 0 .481.385.872.866.872 2.178 0 3.67.992 4.644 2.286a7.24 7.24 0 0 1 1.359 4.198c0 1.209-.343 2.755-1.366 3.982-.998 1.19-2.628 2.093-5.178 2.093a5.8 5.8 0 0 1-4.475-2.093c-1.065-1.24-1.612-2.635-1.612-3.357zm3.609 0c0-.481-.421-.969-.896-.969s-.909.482-.909.969v7.392c0 1.654 1.6 4.06 4.554 4.06 2.46 0 4.469-1.847 4.469-4.33a4.337 4.337 0 0 0-4.193-4.205.873.873 0 0 0-.866.878c0 .481.385.878.866.878 1.263 0 2.388 1.173 2.388 2.448 0 1.546-1.155 2.58-2.664 2.58-1.793 0-2.75-1.395-2.75-2.31z"/>
    <defs>
        <linearGradient id="BUY__a" x1="11.999" x2="11.999" y1="2" y2="21.849" gradientUnits="userSpaceOnUse">
            <stop stop-color="#FADB67"/>
            <stop offset=".98" stop-color="#E15015"/>
        </linearGradient>
    </defs>
</svg>
